X: 495
T: Yuo tiedao
%%abc-version 2.0
%%abcx-abcm2ps-target-version 5.9.1 (29 Sep 2008)
%%abc-creator hum2abc beta
%%abcx-conversion-date 2013/10/02 07:52:30
%%abc-edited-by Helmut Schaffrath
%%humdrum-veritas 2542848314
%%humdrum-veritas-data 3973916679
%%continueall 1
%%barnumbers 0
L: 1/16
M: 2/4
K: G
d2 e d e d B A [I:setbarnb 1]| 
A G A B d e d A | 
A d d G A G F E | 
E D G DD4 | 
G2 A B G2 F E | 
D2 d2 c2 B A | 
d e d G A G F E | 
D2 E GD4 |]  



